X: 3
T: Squirrel Hunters, The
Z: The Merry Highlander
S: https://thesession.org/tunes/6919#setting18503
R: reel
M: 4/4
L: 1/8
K: Dmaj
|:"4"e3d .B2 Bd|efed .B2 BA|GABc d2 dc|dBcA BcBA|!"4"e3d .B2 Bd|efed .B2 BA|GABc d2 B2|1"4" A8:|2"4" A6|!|:Bd|edeg a2ag|edef g2BA|GABc d2dc|dBcA BcBA|!edeg abag|edef g2BA|GABc d2B2|1"4"A6:|2"4"A8|
